!!!!SEGMENT: pl-gd--ee-2628--006-017_stabile-annibale--il-terzo-libro-de-madrigali-a-cinque-voci-che-fa-hoggi-il-mio-sole.krn
!!!cenid: 15xx:1084
!!!COM: Stabile, Annibale
!!!COM-rismID: pe30009662
!!!CDT: ~1535-1595/04
!!!CNT: Italian
!!!GTL: Il terzo libro de madrigali a cinque voci
!!!OTL: Che fa hoggi il mio sole
!!!OMV: 017
!!!PDT: 1585
!!!AGN:
!!!SMS-siglum: PL-GD
!!!SMS-shelfmark: Ee 2628
!!!SMS-shelfwork: 006-017 G
!!!SMS-variant:
!!!SMS-altvar:
!!!NIFC-rismSourceID: 1001203361
!!!NIFC-rismChildID: 990060530
!!!NIFC-islandoraID: pl-gd:66139
!!!URL-pdf-islandora: https://repozytorium.nifc.pl/islandora/object/pl-gd%3A66139/datastream/PDF/view
!!!URL-scan: https://polish.musicsources.pl/pl/lokalizacje/galeria/klocki-introligatorskie/673 @EN{Scan on Polish Music Sources Website} @PL{Skany w portalu Dziedzictwo Muzyki Polskiej w otwartym dostępie}
!!!IIIF:
!!!ONB-nifc: UWAGA: Canto: s. 90-101, Tenore: s. 246-257, Basso: s. 402-413, Quinto: s. 724-735. Dla głosu Alto proszę skorzystać z https://pbc.gda.pl/dlibra/publication/87582/edition/79411/content, str. 25-48. Uwaga: utwory podzielone wg spisu treści dostępnych na końcu ksiąg – proszę sprawdzać sąsiednie tytuły. Głos Quinto proszę umieszczać wg ambitusu (może się różnić w zależności od utworu).
!!!AIN: 1 alto 1 bass 1 soprn 1 tenor 1 vox
!!!key: C
**kern	**text	**kern	**text	**kern	**text	**kern	**text	**kern	**text
*part5	*part5	*part4	*part4	*part3	*part3	*part2	*part2	*part1	*part1
*staff5	*staff5	*staff4	*staff4	*staff3	*staff3	*staff2	*staff2	*staff1	*staff1
*I"BASSO	*	*I"TENORE	*	*I"ALTO	*	*I"QVINTO	*	*I"CANTO	*
*I'B	*	*I'T	*	*I'A	*	*I'V	*	*I'S	*
*ICvox	*	*ICvox	*	*ICvox	*	*ICvox	*	*ICvox	*
*Ibass	*	*Itenor	*	*Ialto	*	*Ivox	*	*Isoprn	*
*clefC4	*	*clefC3	*	*clefC2	*	*clefG2	*	*clefG2	*
*k[]	*	*k[]	*	*k[]	*	*k[]	*	*k[]	*
*C:	*	*C:	*	*C:	*	*C:	*	*C:	*
*M2/1	*	*M2/1	*	*M2/1	*	*M2/1	*	*M2/1	*
*met(C)	*	*met(C)	*	*met(C)	*	*met(C)	*	*met(C)	*
=1-	=1-	=1-	=1-	=1-	=1-	=1-	=1-	=1-	=1-
0r	.	00r	.	2.f\	CHe	1r	.	0r	.
.	.	.	.	4g\	fa	.	.	.	.
.	.	.	.	2a\	hog-	2.cc\	CHe	.	.
.	.	.	.	4a\	gi il	.	.	.	.
.	.	.	.	4b\	mio	4dd\	fa	.	.
=2-	=2-	=2-	=2-	=2-	=2-	=2-	=2-	=2-	=2-
2.A/	CHe	.	.	2a\	ſo-	2ee\	hog-	2.cc\	CHe
.	.	.	.	2a\	-le	4ee\	gi il	.	.
4d\	fa	.	.	.	.	4ff\	mio	4dd\	fa
2c\	hog-	.	.	4r	.	4.gg\	ſo-	2ee\	hog-
.	.	.	.	2cc\	il	.	.	.	.
.	.	.	.	.	.	8ff\	.	.	.
4c\	gi il	.	.	.	.	4ee\	.	4ee\	gi il
4A/	mio	.	.	4c/	mio	8dd\	.	4ff\	mio
.	.	.	.	.	.	8cc\	.	.	.
=3-	=3-	=3-	=3-	=3-	=3-	=3-	=3-	=3-	=3-
1G	ſo-	1r	.	2e/	ſo-	4b\	.	1gg	ſo-
.	.	.	.	.	.	2cc\	.	.	.
.	.	.	.	2d/	-le	.	.	.	.
.	.	.	.	.	.	4b\	.	.	.
*	*	*	*	*	*	*custos:cc	*	*	*
!	!	!	!	!	!	!LO:LB:g=original	!	!	!
2C/	-le	2.c/	CHe	4r	.	4cc\	-le	2ee\	-le
.	.	.	.	4g\	Che	2ee\	Che	.	.
*	*	*	*	*custos:a	*	*	*	*	*
!	!	!	!	!LO:LB:g=original	!	!	!	!	!
2r	.	.	.	2a\	fa	.	.	4r	.
.	.	4d\	fa	.	.	4ff\	fa	4dd\	Che
=4-	=4-	=4-	=4-	=4-	=4-	=4-	=4-	=4-	=4-
0r	.	2e\	hog-	4g\	hog-	2gg\	hog-	4b/	fa
.	.	.	.	4c/	gi il	.	.	4cc\	hog-
*	*	*	*	*	*	*	*	*custos:g	*
!	!	!	!	!	!	!	!	!LO:LB:g=original	!
.	.	4e\	gi il	4c/	mio	4ee\	gi il	4g/	gi il
.	.	4f\	mio	2cc\	ſo-	4cc\	mio	4a/	mio
.	.	1d	ſo-	.	.	1.ff	ſo-	2.f/	ſo-
.	.	.	.	8b\	.	.	.	.	.
.	.	.	.	8a\	.	.	.	.	.
.	.	.	.	2b\	.	.	.	.	.
.	.	.	.	.	.	.	.	4g/	.
=5-	=5-	=5-	=5-	=5-	=5-	=5-	=5-	=5-	=5-
2r	.	2c/	-le	2cc\	-le	.	.	2a/	.
2C/	Che	2c/	Che	4r	.	2ee\	-le	4g/	-le
.	.	.	.	4g\	Che	.	.	4cc\	Che
2G/	fa il	2B/	fa il	2g\	fa il	1r	.	2dd\	fa
*custos:G	*	*	*	*	*	*	*	*	*
!LO:LB:g=original	!	!	!	!	!	!	!	!	!
2G/	mio	2B/	mio	4g\	mio	.	.	4r	.
.	.	.	.	8d/	can-	.	.	4gg\	Che
.	.	.	.	8e/	.	.	.	.	.
*	*	*	*	*custos:f	*	*	*	*	*
!	!	!	!	!LO:LB:g=original	!	!	!	!	!
=6-	=6-	=6-	=6-	=6-	=6-	=6-	=6-	=6-	=6-
8D/	can-	2A/	can-	8f\	.	0r	.	2ff\	fa il
8E/	.	.	.	8g\	.	.	.	.	.
8F/	.	.	.	8a\	.	.	.	.	.
8G/	.	.	.	8b\	.	.	.	.	.
*	*	*custos:A	*	*	*	*	*	*	*
!	!	!LO:LB:g=original	!	!	!	!	!	!	!
8A\	.	2A/	-to	4cc\	.	.	.	2ee\	mio
8B\	.	.	.	.	.	.	.	.	.
8c\	.	.	.	2a\	-t'e'l	.	.	.	.
8A\	.	.	.	.	.	.	.	.	.
4B\	.	4r	.	.	.	.	.	4dd\	cant'
4c\	-t'e'l	4c/	e'l	4.g\	ſuo-	.	.	4ee\	e'l
*	*	*	*	*	*	*	*	*custos:cc	*
!	!	!	!	!	!	!	!	!LO:LB:g=original	!
2A/	ſuo-	2c/	ſuo-	.	.	.	.	2cc\	ſuo-
.	.	.	.	8f\	.	.	.	.	.
.	.	.	.	4f\	.	.	.	.	.
=7-	=7-	=7-	=7-	=7-	=7-	=7-	=7-	=7-	=7-
1G	-no	2d\	-no	2g\	-no	2r	.	1b	-no
.	.	2d\	Che	4r	.	2gg\	Che	.	.
.	.	.	.	4g\	Che	.	.	.	.
*custos:A	*	*	*	*	*	*	*	*	*
!LO:LB:g=original	!	!	!	!	!	!	!	!	!
1r	.	4d\	fa il	8a\	fa il	2ff\	fa il	1r	.
.	.	.	.	8g\	.	.	.	.	.
.	.	4f\	mio	8a\	.	.	.	.	.
.	.	.	.	8b\	.	.	.	.	.
*	*	*	*	*	*	*custos:ee	*	*	*
!	!	!	!	!	!	!LO:LB:g=original	!	!	!
.	.	8c/	can-	4cc\	.	2ee\	mio	.	.
.	.	8d\	.	.	.	.	.	.	.
.	.	8e\	.	4cc\	mio	.	.	.	.
.	.	8f\	.	.	.	.	.	.	.
=8-	=8-	=8-	=8-	=8-	=8-	=8-	=8-	=8-	=8-
0r	.	4g\	.	4b\	can-	4dd\	cant	0r	.
.	.	4e\	to e'l	2cc\	to e'l	4ee\	e'l	.	.
*	*	*custos:a	*	*	*	*	*	*	*
!	!	!LO:LB:g=original	!	!	!	!	!	!	!
.	.	2a\	ſuo-	.	.	2cc\	ſuo-	.	.
.	.	.	.	2a\	ſuo-	.	.	.	.
.	.	1e	-no	.	.	1b	-no	.	.
.	.	.	.	8g#X\	.	.	.	.	.
.	.	.	.	8f#X\	.	.	.	.	.
.	.	.	.	2g#X\	.	.	.	.	.
*	*	*	*	*custos:a	*	*	*	*	*
!	!	!	!	!LO:LB:g=original	!	!	!	!	!
=9-	=9-	=9-	=9-	=9-	=9-	=9-	=9-	=9-	=9-
*M3/1	*	*M3/1	*	*M3/1	*	*M3/1	*	*M3/1	*
*met(O|3/1)	*	*met(O|3/1)	*	*met(O|3/1)	*	*met(O|3/1)	*	*met(O|3/1)	*
!	!	!	!	!	!	!	!	!LO:N:vis=00	!
0A	Che	1r	.	1a	-no	0cc	Che	1%3r	.
.	.	1c	Che	1e	Che	.	.	.	.
1G	non	1d	non	1gny	non	1b	non	.	.
=10-	=10-	=10-	=10-	=10-	=10-	=10-	=10-	=10-	=10-
1.c	can-	1.e	can-	1.g	can-	1.cc	can-	1%3ryy	.
2c\	-tan	2e\	-tan	2g\	-tan	2cc\	-tan	.	.
1F	di	1f	di	1a	di	1cc	di	.	.
=11-	=11-	=11-	=11-	=11-	=11-	=11-	=11-	=11-	=11-
1c	lei	1e	lei	1g	lei	1cc	lei	1r	.
*	*	*	*ij	*	*ij	*	*ij	*	*
1r	.	1A	Che	1e	Che	1a	Che	1cc	Che
1r	.	1G	non	1g	non	1b	non	1dd	non
=12-	=12-	=12-	=12-	=12-	=12-	=12-	=12-	=12-	=12-
0r	.	1.c	can-	1.g	can-	1.cc	can-	1.ee	can-
.	.	2c/	-tan	2g\	-tan	2cc\	-tan	2ee\	-tan
1ryy	.	1F	di	1a	di	1cc	di	1ff	di
=13-	=13-	=13-	=13-	=13-	=13-	=13-	=13-	=13-	=13-
00r	.	1c	lei	1g	lei	1cc	lei	1ee	lei
*	*	*	*Xij	*	*Xij	*	*Xij	*	*
.	.	1G	la	1g	la	1b-X	la	1dd	la
*	*	*	*	*	*	*custos:b-	*	*	*
!	!	!	!	!	!	!LO:LB:g=original	!	!	!
.	.	1B-X	glo-	1fny	glo-	1b-	glo-	1dd	glo-
=14-	=14-	=14-	=14-	=14-	=14-	=14-	=14-	=14-	=14-
.	.	1c	ria el	1e	ria el	0a	ria el	0cc	ria el
*	*	*	*	*lig	*	*	*	*	*
*	*	*custos:d	*	*	*	*	*	*	*
!	!	!LO:LB:g=original	!	!	!	!	!	!	!
0ryy	.	0d	no-	1f	no-	.	.	.	.
.	.	.	.	1d	.	1f	no-	1b	no-
*	*	*	*	*Xlig	*	*	*	*	*
=15-	=15-	=15-	=15-	=15-	=15-	=15-	=15-	=15-	=15-
0C	Che	1c	-me	1e	-me	1g	-me	1cc	-me
.	.	1c	Che	1g	Che	1gg	Che	1ee	Che
*	*	*	*	*custos:g	*	*	*	*	*
!	!	!	!	!LO:LB:g=original	!	!	!	!	!
1G	non	1Bny	non	1g	non	1gg	non	1dd	non
*	*	*	*	*	*	*	*	*custos:dd	*
!	!	!	!	!	!	!	!	!LO:LB:g=original	!
=16-	=16-	=16-	=16-	=16-	=16-	=16-	=16-	=16-	=16-
1.D	can-	1.A	can-	1.a	can-	1.ff#X	can-	1.dd	can-
2D/	-tan	2A/	-tan	2a\	-tan	2ff#\	-tan	2dd\	-tan
1G	di	1G	di	1b	di	1gg	di	1dd	di
=17-	=17-	=17-	=17-	=17-	=17-	=17-	=17-	=17-	=17-
1C	lei	1G	lei	1cc	lei	1gg	lei	1ee	lei
1C	la	1c	la	1g	la	1ee	la	1cc	la
1F	glo-	1c	glo-	1.f	glo-	1cc	glo-	1a	glo-
=18-	=18-	=18-	=18-	=18-	=18-	=18-	=18-	=18-	=18-
1D	ria el	1f	ria el	.	.	0dd	ria el	1a	ria el
.	.	.	.	2d/	ria el	.	.	.	.
*custos:A	*	*	*	*	*	*	*	*	*
!LO:LB:g=original	!	!	!	!	!	!	!	!	!
0A	no-	0e	no-	1e	no-	.	.	0a	no-
.	.	.	.	1A	-me	1cc#X	no-	.	.
=19-	=19-	=19-	=19-	=19-	=19-	=19-	=19-	=19-	=19-
*M2/1	*	*M2/1	*	*M2/1	*	*M2/1	*	*M2/1	*
*met(C)	*	*met(C)	*	*met(C)	*	*met(C)	*	*met(C)	*
1D	-me	2d\	-me	2r	.	2dd\	-me	2a/	-me
.	.	2d\	Hor	2f#X\	Hor	2a/	Hor	2dd\	Hor
1r	.	2.d\	queſ-	2.f#\	queſ-	2.a/	queſ-	2dd\	queſ-
.	.	.	.	.	.	.	.	2dd\	-te
.	.	4B/	-te	4g\	-te	4bny/	-te	.	.
*	*	*	*	*	*	*custos:g	*	*	*
!	!	!	!	!	!	!LO:LB:g=original	!	!	!
=20-	=20-	=20-	=20-	=20-	=20-	=20-	=20-	=20-	=20-
0r	.	4c/	mie	4e/	mie	4g/	mie	4cc\	mie
.	.	4c/	vi-	4e/	ci-	4g/	vi-	4cc\	vi-
*	*	*custos:A	*	*	*	*	*	*	*
!	!	!LO:LB:g=original	!	!	!	!	!	!	!
.	.	2A/	-o-	2f#X\	-o-	2a/	-o-	2cc\	-o-
.	.	2G/	-le	2g\	-le	1dd	-le	2b/	-le
.	.	2G/	et	2g\	et	.	.	4r	.
.	.	.	.	.	.	.	.	4gg\	et
*	*	*	*	*custos:g	*	*	*	*custos:ee	*
!	!	!	!	!LO:LB:g=original	!	!	!	!LO:LB:g=original	!
=21-	=21-	=21-	=21-	=21-	=21-	=21-	=21-	=21-	=21-
2r	.	4.c/	queſ-	4.g\	queſ-	2r	.	4.ee\	que-
.	.	8B/	-ti	8g\	-ti	.	.	8dd\	-ſti
4r	.	4A/	fior	4a\	fior	4r	.	4cc\	fior
4G/	Hor	4G/	li	4d/	li	4gg\	et	4b/	li
4.C/	queſ-	2G/	do-	1g	do-	4.ee\	queſ-	2cc\	do-
8D/	-ti	.	.	.	.	8dd\	-ti	.	.
4E/	fior	4G/	-no	.	.	4ccny\	fior	4g/	-no
*	*	*	*ij	*	*	*	*	*	*ij
4G/	li	4G/	et	.	.	4b/	li	4gg\	et
=22-	=22-	=22-	=22-	=22-	=22-	=22-	=22-	=22-	=22-
4.C/	do-	4c/	queſ-	2g\	-no	8cc\	do-	4.ee\	que-
.	.	.	.	.	.	8dd\	.	.	.
.	.	4c/	-ti	.	.	8ee\	.	.	.
8D/	.	.	.	.	.	8ffny\	.	8dd\	-ſti
8E/	.	4c/	fior	4r	.	2.gg\	.	4cc\	fior
8F/	.	.	.	.	.	.	.	.	.
4G/	.	4G/	li	4d/	li	.	.	4b\	li
1D	-no	1A	do-	1d	do-	.	.	1a	do-
.	.	.	.	.	.	8ff#X\	.	.	.
.	.	.	.	.	.	8ee\	.	.	.
.	.	.	.	.	.	2ff#X\	.	.	.
=23-	=23-	=23-	=23-	=23-	=23-	=23-	=23-	=23-	=23-
00r	.	1G	-no	2d/	-no	1gg	-no	2b/	-no
*	*	*	*Xij	*	*	*	*	*	*Xij
.	.	.	.	4r	.	.	.	2dd\	Che
.	.	.	.	4g\	Che	.	.	.	.
.	.	1r	.	4e/	ne	1r	.	4ee\	ne
.	.	.	.	4.a\	fac-	.	.	4.cc\	fac-
.	.	.	.	8a\	-ci	.	.	8cc\	-ci
.	.	.	.	4g\	co-	.	.	4b/	co-
*	*	*	*	*	*	*custos:dd	*	*	*
!	!	!	!	!	!	!LO:LB:g=original	!	!	!
=24-	=24-	=24-	=24-	=24-	=24-	=24-	=24-	=24-	=24-
.	.	4r	.	2f#X\	-ro-	4r	.	2a/	-ro-
.	.	4d\	Che	.	.	4dd\	Che	.	.
*	*	*	*	*	*	*	*	*custos:g	*
!	!	!	!	!	!	!	!	!LO:LB:g=original	!
.	.	4e\	ne	2g\	na al-	4b/	ne	4g/	na al-
.	.	4.c/	fac-	.	.	4.ee\	fac-	4e/	-le
.	.	.	.	4c/	-le	.	.	2g/	ſue
.	.	8c/	-ci	.	.	8ee\	-ci	.	.
.	.	4B/	co-	4d/	ſue	4dd\	co-	.	.
*	*	*custos:A	*	*	*	*	*	*	*
!	!	!LO:LB:g=original	!	!	!	!	!	!	!
.	.	2A/	-ro-	2e/	chio-	2cc#X\	-ro-	2a/	chio-
*	*	*	*	*custos:g	*	*	*	*	*
!	!	!	!	!LO:LB:g=original	!	!	!	!	!
=25-	=25-	=25-	=25-	=25-	=25-	=25-	=25-	=25-	=25-
1r	.	4G/	na al-	4g\	-me	2dd\	na al-	4b/	-me
.	.	2g\	-le	4g\	Che	.	.	4b/	al-
.	.	.	.	4e/	ne	4g/	-le	4cc\	-le
.	.	4f\	ſue	4.a\	fac-	4a/	ſue	4dd\	ſue
2r	.	2e\	chio-	.	.	4b/	chio-	4ee\	chio-
.	.	.	.	8a\	-ci	.	.	.	.
.	.	.	.	4g\	co-	8a/	.	8dd\	.
.	.	.	.	.	.	8g/	.	8cc\	.
4r	.	2d\	-me	2f#X\	-ro-	2a/	.	2.dd\	.
4d\	Che	.	.	.	.	.	.	.	.
*custos:B	*	*	*	*	*	*	*	*	*
!LO:LB:g=original	!	!	!	!	!	!	!	!	!
=26-	=26-	=26-	=26-	=26-	=26-	=26-	=26-	=26-	=26-
4B\	ne	1r	.	4g\	na al-	1g	-me	.	.
4.e\	fac-	.	.	2c/	-le	.	.	4b/	-me
.	.	.	.	.	.	.	.	2r	.
8d\	-ci	.	.	.	.	.	.	.	.
4c\	co-	.	.	4e/	ſue	.	.	.	.
2B\	-ro-	4r	.	2d/	chio-	4r	.	1r	.
.	.	4g\	Che	.	.	4dd\	Che	.	.
4c\	na al-	4e\	ne	4c/	-me	4ee\	ne	.	.
2F/	-le	4.a\	fac-	4fny\	al-	4.ccny\	fac-	.	.
=27-	=27-	=27-	=27-	=27-	=27-	=27-	=27-	=27-	=27-
.	.	.	.	4f\	-le	.	.	2r	.
.	.	8a\	-ci	.	.	8cc\	-ci	.	.
4G/	ſue	4g\	co-	4d/	ſue	4b/	co-	.	.
*	*	*	*	*	*	*custos:a	*	*	*
!	!	!	!	!	!	!LO:LB:g=original	!	!	!
2D/	chio-	2f#X\	-ro-	2d/	chio-	2a/	-ro-	1dd	al-
2G/	-me	2g\	na al-	2d/	-me	2b/	na al-	.	.
*	*	*	*	*	*ij	*	*	*	*
4r	.	1c\	-le	2g\	al-	2.ee\	-le	1cc\	-le
4c\	al-	.	.	.	.	.	.	.	.
=28-	=28-	=28-	=28-	=28-	=28-	=28-	=28-	=28-	=28-
2A/	-le	.	.	2a\	-le	.	.	.	.
.	.	.	.	.	.	4dd\	ſue	.	.
2c\	ſue	2e\	ſue	2g\	ſue	2.cc\	chio-	2cc\	ſue
1G	chio-	1d	chio-	1g	chio-	.	.	1dd	chio-
.	.	.	.	.	.	8b/	.	.	.
.	.	.	.	.	.	8a/	.	.	.
.	.	.	.	.	.	2b/	.	.	.
=29-	=29-	=29-	=29-	=29-	=29-	=29-	=29-	=29-	=29-
00C	-me.	00c	-me.	00g	-me	00cc	-me.	00ee	-me.
==	==	==	==	==	==	==	==	==	==
*-	*-	*-	*-	*-	*-	*-	*-	*-	*-
!!!system-decoration: [(s1,s2,s3,s4,s5)]
!!!ENC: Mateusz Solarz
!!!END: 2022-07-11
!!!ENC: Jan Barakat
!!!END: 2022-08-03
!!!YEC: Copyright 2022 Narodowy Instytut Fryderyka Chopina (https://polishscores.org)
!!!YEM: License CC-BY-4.0 (https://creativecommons.org/licenses/by/4.0)
